X: 12098
T: Eugene Stratton
R: hornpipe
M: 4/4
K: Fmajor
C|:F2 CF A,CFA|c2 de fcA^F|G2 DG =B,DGF|(3EFG c=B dc_BG|
F2 CF A,CFA|c2 de fc=Bc|dBFD B,fed|1 c2 de fcAG:|2 c2 de f2 (3cde||
|:fF ~F2 dF ~F2|Acde fcAF|B,DFB A,CFA|GcBd cd (3edc|
fF ~F2 dF ~F2|Acde fc=Bc|dBFD B,fed|1 c2 de f2 (3cde:|2 c2 de fcAG||

